epam-assets/icon-sources/18/navigation-show.svg

<svg xmlns="http://www.w3.org/2000/svg" width="18" height="18" fill="none" viewBox="0 0 18 18">
  <path fill="#6C6F80" fill-rule="evenodd" d="M10.629 9.75H2.25v-1.5h8.325L7.452 5.127l.846-.852 4.752 4.752-4.752 4.752-.852-.852 3.183-3.177Zm3.621 6V2.25h1.5v13.5h-1.5Z" clip-rule="evenodd"/>
</svg>

<svg width="18" height="18" viewBox="0 0 18 18" fill="none" xmlns="http://www.w3.org/2000/svg">
<g id="18/navigation-show">
<path id="icon" fill-rule="evenodd" clip-rule="evenodd" d="M10.6288 9.75H2.25V8.25H10.575L7.452 5.127L8.298 4.275L13.05 9.027L8.298 13.779L7.446 12.927L10.6288 9.75ZM14.25 15.75V2.25H15.75V15.75H14.25Z" fill="#6C6F80"/>
</g>
</svg>
